!!!COM: Palestrina, Giovanni Perluigi da
!!!OPR: Missa In festis Apostolorum (I)
!!!OMD: Credo
!!!OTL: Confiteor
**kern	**kern	**kern	**kern	**kern
*Ibass	*Itenor	*Itenor	*Icalto	*Icant
!Bassus	!Tenor 2	!Tenor 1	!Altus	!Cantus
*clefF4	*clefGv2	*clefGv2	*clefG2	*clefG2
*k[]	*k[]	*k[]	*k[]	*k[]
*D:dor	*D:dor	*D:dor	*D:dor	*D:dor
*M4/2	*M4/2	*M4/2	*M4/2	*M4/2
=151	=151	=151	=151	=151
0r	0r	1G	1d	1r
.	.	2.c	2.e	1g
.	.	4c	4e	.
=152	=152	=152	=152	=152
0r	0r	2A	2e	2.a
.	.	2F	2A	.
.	.	.	.	4a
.	.	2A	2c	2a
.	.	[2B-	[2d	2d
=153	=153	=153	=153	=153
0r	0r	4B-]	4d]	2f
.	.	4A	4c	.
.	.	2G	2B	2g
.	.	[1A	2c	1f
.	.	.	[2d	.
=154	=154	=154	=154	=154
0r	1r	1A]	4d]	2.e
.	.	.	4c	.
.	.	.	1c	.
.	.	.	.	4f
.	1d	1G	.	[1g
.	.	.	2B	.
=155	=155	=155	=155	=155
2r	2.e	0r	2c	1g]
2G	.	.	2B	.
.	4e	.	.	.
2.A	2e	.	2.c	1r
.	2A	.	.	.
4A	.	.	4c	.
=156	=156	=156	=156	=156
2A	2c	2r	2e	0r
2D	2d	2A	1f	.
2F	2c	2A	.	.
2G	[2B	2B	[2e	.
=157	=157	=157	=157	=157
1F	4B]	2c	2e]	1r
.	4A	.	.	.
.	1A	4B	2d	.
.	.	4A	.	.
1E	.	1B	[1e	2r
.	2G#	.	.	2e
=158	=158	=158	=158	=158
2r	2A	1A	2e]	2c
1D	1f	.	2A	1d
.	.	2r	1r	.
2C	2e	[2A	.	2e
=159	=159	=159	=159	=159
2D	2d	2A]	1r	2f
2E	2c	2G	.	2e
1G	2B	2B	2r	2.d
.	2G	2B	[2d	.
.	.	.	.	4e
=160	=160	=160	=160	=160
1F	2r	1A	2d]	1f
.	2A	.	2c	.
2E	1B	2G	2e	1r
2D	.	[2d	2f	.
=161	=161	=161	=161	=161
1E	1G	2d]	1.g	0r
.	.	2c	.	.
1D	2A	2.d	.	.
.	[2A	.	2f	.
.	.	4c	.	.
=162	=162	=162	=162	=162
1E	2A]	1B	2.e	1r
.	2G	.	.	.
.	.	.	4d	.
1F	1A	2A	2c	2r
.	.	2D	2d	[2a
=163	=163	=163	=163	=163
2.E	2B	1r	1.e	2a]
.	2.c	.	.	2g
4D	.	.	.	.
2C	.	1A	.	1a
.	4B	.	.	.
2D	[2A	.	2f	.
=164	=164	=164	=164	=164
1BB	2A]	1D	1d	2b
.	2G#	.	.	1dd
1AA	1A	2E	2r	.
.	.	2E	2A	2cc
=165	=165	=165	=165	=165
1GG	2r	1G	2d	1b-
.	2.D	.	4d	.
.	.	.	4e	.
[1D	.	2F	4f	1a
.	4E	.	4g	.
.	4F	2D	[2f	.
.	4G	.	.	.
=166	=166	=166	=166	=166
1D]	2A	1F	4f]	4d
.	.	.	4e	4e
.	2A	.	1d	4f
.	.	.	.	4g
1AA	1A	1E	.	1a
.	.	.	2c#	.
=167	=167	=167	=167	=167
[0D	[0F#	[0D	[0d	[0a
=168	=168	=168	=168	=168
0D]	0F#]	0D]	0d]	0a]
*-	*-	*-	*-	*-
!!!CDT: 1525/^1526/-1594/2/2
!!!OCY: Italia
!!!AGN: Mass (Paraphrase)
!!!AST: renaissance, vocal
!!!ASW: Gregorian Mass
!!!PWK: Masses, Book Mantuan II
!!!RNB: Cadence finals: A,E
!!!YOR: Le Opere Complete, v. 19, p. 43
!!!YOO: Rome, Italy: Fratelli Scalera
!!!END: 1992//
!!!EED: John Miller
!!!YEC: Copyright 2000, John Miller
!!!YEN: United States of America
!!!YEM: Rights to all derivative electronic formats reserved.
!!!YEM: Refer to licensing agreement for further details.
!!!YEM: This file must be accompanied by the licensing agreement.
!!!YEM: A copy of the licensing agreement may be found at http://www.music-cog.ohio-state.edu/HumdrumDatabases/Palestrina/license.txt
!!!EMD: converted to Humdrum by Bret Aarden
